X: 28962
T: Nancy's
R: waltz
M: 3/4
K: Amixolydian
E AB|c3c cd|e3e fg|f3f ed|cA2E AB|
c3c cd|ec3 A2|G3A BA|A3E AB|
c3c cd|ea3 aA|f3f ed|cA3 EF|
G3A B2|d3B AG|F3G FD|1 E3:|2 E4 eA|
|:f3f ed|cA3 EF|G2AD BA|A3c ea|
f3f ed|ca3 ef|g3f ed|e3A (3aba|
c'3c' af|ec2c Bc|d2eA fa|ec3 EF|
G3A B2|d3B AG|F3G FD|1 E4 eA:|2 E3||

